build/img/content/advantages/question.svg

<svg width="120" height="120" viewBox="0 0 120 120" fill="none" xmlns="http://www.w3.org/2000/svg">
<g clip-path="url(#clip0)">
<path d="M24.2396 75.9058H2.34351V117.652H24.2396V75.9058Z" fill="#FF9155"/>
<path d="M59.9954 49.9227C57.4067 49.9227 55.3084 47.8244 55.3084 45.2357V35.1582C55.3084 32.5696 57.4067 30.4712 59.9954 30.4712C65.1643 30.4712 69.3697 26.2658 69.3697 21.0969C69.3697 15.928 65.1643 11.7226 59.9954 11.7226C54.8265 11.7226 50.6211 15.928 50.6211 21.0969C50.6211 23.6856 48.5227 25.7839 45.9341 25.7839C43.3454 25.7839 41.247 23.6856 41.247 21.0969C41.247 10.7588 49.6576 2.34827 59.9956 2.34827C70.3337 2.34827 78.7443 10.7588 78.7443 21.0969C78.7443 29.8171 72.7602 37.1659 64.6829 39.2523V45.2357C64.6825 47.8244 62.5841 49.9227 59.9954 49.9227Z" fill="#4BB9F5"/>
<path d="M59.9954 69.4042C58.7626 69.4042 57.5534 68.9026 56.6813 68.0308C55.8073 67.1589 55.3081 65.9497 55.3081 64.7169C55.3081 63.4818 55.8073 62.275 56.6813 61.4031C57.5534 60.5289 58.7626 60.0297 59.9954 60.0297C61.2282 60.0297 62.4373 60.5289 63.3092 61.4031C64.1811 62.275 64.6827 63.4841 64.6827 64.7169C64.6827 65.9497 64.1809 67.1589 63.3092 68.0308C62.4373 68.9026 61.2282 69.4042 59.9954 69.4042Z" fill="#4BB9F5"/>
<path d="M54.9214 77.171L78.5249 83.1617C81.4701 83.9093 83.4252 86.6989 83.1233 89.7223C82.8097 92.8611 80.1688 95.2512 77.0146 95.2512H60.542L65.859 95.2676H77.4815C80.7524 95.2676 83.9017 94.0282 86.2951 91.7991L106.439 73.0387C108.793 70.8464 112.376 70.6465 114.96 72.563C118.309 75.0476 118.583 79.9615 115.53 82.8028L87.7813 108.636C85.4399 110.815 82.36 112.027 79.161 112.027H24.2393V83.9046L43.6203 77.5556C47.2744 76.3582 51.1941 76.2248 54.9214 77.171Z" fill="#FFCDAC"/>
<path d="M119.986 77.4192C119.836 74.7374 118.514 72.2814 116.357 70.6811C112.867 68.0913 108.023 68.3613 104.842 71.3238L85.4924 89.3442C85.6103 85.3795 83.0043 81.8803 79.1012 80.89L55.4696 74.8921C51.3254 73.84 46.9862 73.9821 42.9193 75.3025L26.5826 80.6064V75.9056C26.5826 74.6114 25.5331 73.5621 24.2391 73.5621H2.34352C1.0493 73.5621 0 74.6116 0 75.9056V117.652C0 118.946 1.04953 119.995 2.34352 119.995H24.2393C25.5336 119.995 26.5829 118.946 26.5829 117.652V85.5347L44.3668 79.7608C47.5911 78.7136 51.0317 78.6016 54.3167 79.435L77.9486 85.4329C79.784 85.8989 80.9798 87.6047 80.7916 89.4895C80.597 91.4381 78.9733 92.9079 77.0148 92.9079H60.5422C59.248 92.9079 58.1987 93.9574 58.1987 95.2514C58.1987 96.5454 59.2482 97.5949 60.5422 97.5949H65.5911C65.6793 97.605 65.7686 97.6113 65.8595 97.6113H77.4819C81.3585 97.6113 85.0556 96.1561 87.8931 93.5142L108.037 74.7539C109.564 73.3317 111.889 73.2025 113.565 74.4454C114.6 75.2135 115.235 76.3924 115.306 77.6798C115.378 78.9672 114.878 80.2092 113.934 81.0879L86.1845 106.921C84.2704 108.702 81.7757 109.684 79.1608 109.684H42.8429C41.5487 109.684 40.4994 110.733 40.4994 112.027C40.4994 113.321 41.5489 114.371 42.8429 114.371H79.1612C82.9652 114.371 86.5938 112.943 89.3786 110.351L117.128 84.5184C119.094 82.6884 120.135 80.1009 119.986 77.4192ZM21.8958 115.308H4.68704V78.2493H21.8956V115.308H21.8958Z" fill="black"/>
<path d="M33.3866 109.684C32.7676 109.684 32.1655 109.934 31.7274 110.37C31.2915 110.806 31.0407 111.411 31.0407 112.027C31.0407 112.643 31.2913 113.248 31.7274 113.684C32.1657 114.12 32.7678 114.371 33.3866 114.371C34.003 114.371 34.6053 114.12 35.0434 113.684C35.4791 113.248 35.7301 112.643 35.7301 112.027C35.7301 111.411 35.4793 110.806 35.0434 110.37C34.6051 109.934 34.003 109.684 33.3866 109.684Z" fill="black"/>
<path d="M13.2929 107.263C12.6741 107.263 12.0694 107.511 11.6337 107.95C11.198 108.385 10.9493 108.988 10.9493 109.606C10.9493 110.223 11.198 110.827 11.6337 111.263C12.072 111.699 12.6743 111.95 13.2929 111.95C13.9093 111.95 14.5116 111.699 14.9476 111.263C15.3856 110.827 15.6364 110.223 15.6364 109.606C15.6364 108.988 15.3856 108.385 14.9476 107.95C14.5137 107.514 13.909 107.263 13.2929 107.263Z" fill="black"/>
<path d="M45.9341 28.1274C49.8109 28.1274 52.9649 24.9734 52.9649 21.0966C52.9649 17.2198 56.1188 14.0658 59.9956 14.0658C63.8725 14.0658 67.0264 17.2198 67.0264 21.0966C67.0264 24.9734 63.8725 28.1274 59.9956 28.1274C56.1188 28.1274 52.9649 31.2813 52.9649 35.1581V45.2356C52.9649 49.1124 56.1188 52.2664 59.9956 52.2664C63.8725 52.2664 67.0264 49.1124 67.0264 45.2356V40.9852C75.3913 38.0325 81.0878 30.0994 81.0878 21.0968C81.0878 9.46661 71.6258 0.00463867 59.9956 0.00463867C48.3655 0.00463867 38.9035 9.46661 38.9035 21.0968C38.9033 24.9734 42.0573 28.1274 45.9341 28.1274ZM59.9954 4.69168C69.0414 4.69168 76.4005 12.0511 76.4005 21.0968C76.4005 28.5792 71.3411 35.1117 64.0965 36.9832C63.0617 37.2504 62.3392 38.1839 62.3392 39.2522V45.2356C62.3392 46.5279 61.2878 47.5791 59.9956 47.5791C58.7035 47.5791 57.6521 46.5277 57.6521 45.2356V35.1581C57.6521 33.8658 58.7035 32.8146 59.9956 32.8146C66.4569 32.8146 71.7135 27.5581 71.7135 21.0968C71.7135 14.6355 66.4569 9.37895 59.9956 9.37895C53.5344 9.37895 48.2778 14.6355 48.2778 21.0968C48.2778 22.3891 47.2264 23.4403 45.9343 23.4403C44.6422 23.4403 43.5908 22.3889 43.5908 21.0968C43.5903 12.0511 50.9495 4.69168 59.9954 4.69168Z" fill="black"/>
<path d="M55.0266 59.744C53.7163 61.0509 52.9648 62.8635 52.9648 64.717C52.9648 66.5704 53.7165 68.3833 55.0243 69.6878C56.3335 70.9971 58.1452 71.7475 59.9954 71.7475C61.8458 71.7475 63.6578 70.9966 64.9663 69.6878C66.2755 68.3786 67.026 66.5669 67.026 64.717C67.026 62.867 66.2753 61.0551 64.9686 59.7484C63.6617 58.4378 61.8491 57.6864 59.9954 57.6864C58.142 57.6862 56.3291 58.4378 55.0266 59.744ZM62.3389 64.717C62.3389 65.3242 62.082 65.9434 61.6515 66.3735C61.2217 66.8036 60.6022 67.0605 59.9954 67.0605C59.3884 67.0605 58.7687 66.8036 58.3365 66.3714C57.9078 65.9439 57.6519 65.3252 57.6519 64.717C57.6519 64.0994 57.9013 63.4963 58.3407 63.0583C58.7684 62.6296 59.3872 62.3734 59.9954 62.3734C60.6036 62.3734 61.2221 62.6294 61.6517 63.0606C62.082 63.4905 62.3389 64.1097 62.3389 64.717Z" fill="black"/>
<path d="M13.2917 102.653C14.5859 102.653 15.6352 101.603 15.6352 100.309V85.4273C15.6352 84.133 14.5857 83.0837 13.2917 83.0837C11.9977 83.0837 10.9482 84.1333 10.9482 85.4273V100.309C10.9479 101.604 11.9972 102.653 13.2917 102.653Z" fill="black"/>
</g>
<defs>
<clipPath id="clip0">
<rect width="120" height="120" fill="white"/>
</clipPath>
</defs>
</svg>

<svg width="120" height="120" fill="none" xmlns="http://www.w3.org/2000/svg"><g clip-path="url(#clip0)"><path d="M24.24 75.906H2.344v41.746H24.24V75.906z" fill="#FF9155"/><path d="M59.995 49.923a4.687 4.687 0 01-4.687-4.687V35.158a4.687 4.687 0 014.687-4.687c5.17 0 9.375-4.205 9.375-9.374 0-5.169-4.206-9.374-9.375-9.374-5.168 0-9.374 4.205-9.374 9.374a4.687 4.687 0 11-9.374 0c0-10.338 8.41-18.749 18.749-18.749 10.338 0 18.748 8.41 18.748 18.749 0 8.72-5.984 16.069-14.061 18.155v5.984a4.688 4.688 0 01-4.688 4.687zm0 19.481a4.724 4.724 0 01-3.314-1.373 4.713 4.713 0 01-1.373-3.314c0-1.235.5-2.442 1.373-3.314a4.714 4.714 0 013.314-1.373c1.233 0 2.442.499 3.314 1.373a4.722 4.722 0 011.374 3.314 4.723 4.723 0 01-1.374 3.314 4.723 4.723 0 01-3.314 1.373z" fill="#4BB9F5"/><path d="M54.921 77.171l23.604 5.99a6.14 6.14 0 01-1.51 12.09H60.542l5.317.017h11.623c3.27 0 6.42-1.24 8.813-3.469l20.144-18.76a6.671 6.671 0 018.521-.476c3.349 2.485 3.623 7.398.57 10.24l-27.749 25.833a12.654 12.654 0 01-8.62 3.391H24.239V83.905l19.381-6.35a20.273 20.273 0 0111.301-.384z" fill="#FFCDAC"/><path d="M119.986 77.42a9.016 9.016 0 00-15.144-6.095l-19.35 18.02a8.424 8.424 0 00-6.39-8.455L55.47 74.892a22.587 22.587 0 00-12.55.41l-16.337 5.304v-4.7a2.344 2.344 0 00-2.344-2.344H2.344A2.344 2.344 0 000 75.906v41.746a2.343 2.343 0 002.344 2.343h21.895a2.343 2.343 0 002.344-2.343V85.535l17.784-5.774a17.91 17.91 0 019.95-.326l23.632 5.998a3.773 3.773 0 012.843 4.056 3.784 3.784 0 01-3.777 3.419H60.542a2.344 2.344 0 000 4.687h5.05c.087.01.177.016.267.016h11.623a15.23 15.23 0 0010.411-4.097l20.144-18.76a4.329 4.329 0 017.269 2.926 4.314 4.314 0 01-1.372 3.408l-27.75 25.833a10.28 10.28 0 01-7.023 2.763H42.843a2.343 2.343 0 100 4.687H79.16a14.95 14.95 0 0010.218-4.02l27.749-25.833a8.99 8.99 0 002.858-7.099zm-98.09 37.888H4.687V78.249h17.209v37.059z" fill="#000"/><path d="M33.387 109.684c-.62 0-1.221.25-1.66.686a2.362 2.362 0 00-.686 1.657c0 .616.25 1.221.686 1.657.439.436 1.04.687 1.66.687.616 0 1.218-.251 1.656-.687a2.363 2.363 0 00.687-1.657c0-.616-.25-1.221-.687-1.657a2.364 2.364 0 00-1.656-.686zm-20.094-2.421a2.35 2.35 0 00-1.66.687 2.353 2.353 0 00-.684 1.656c0 .617.249 1.221.685 1.657.438.436 1.04.687 1.659.687.616 0 1.219-.251 1.655-.687.438-.436.688-1.04.688-1.657a2.348 2.348 0 00-2.343-2.343zm32.641-79.136a7.039 7.039 0 007.03-7.03 7.039 7.039 0 017.032-7.031 7.039 7.039 0 017.03 7.03 7.039 7.039 0 01-7.03 7.031 7.039 7.039 0 00-7.031 7.031v10.078a7.039 7.039 0 007.03 7.03 7.039 7.039 0 007.031-7.03v-4.25a21.093 21.093 0 0014.062-19.89c0-11.63-9.462-21.091-21.092-21.091-11.63 0-21.093 9.462-21.093 21.092a7.038 7.038 0 007.031 7.03zM59.995 4.692c9.046 0 16.405 7.36 16.405 16.405a16.405 16.405 0 01-12.303 15.886 2.343 2.343 0 00-1.758 2.27v5.983a2.346 2.346 0 01-2.343 2.343 2.346 2.346 0 01-2.344-2.343V35.158a2.346 2.346 0 012.344-2.343c6.46 0 11.717-5.257 11.717-11.718 0-6.462-5.256-11.718-11.717-11.718-6.462 0-11.718 5.257-11.718 11.718a2.346 2.346 0 01-2.344 2.343 2.346 2.346 0 01-2.343-2.343c0-9.046 7.358-16.405 16.404-16.405zm-4.968 55.052a7.07 7.07 0 00-2.062 4.973 7.07 7.07 0 002.06 4.97 7.078 7.078 0 004.97 2.06c1.85 0 3.663-.75 4.971-2.06a7.079 7.079 0 002.06-4.97c0-1.85-.75-3.662-2.057-4.969a7.07 7.07 0 00-4.974-2.062 7.066 7.066 0 00-4.968 2.058zm7.312 4.973a2.39 2.39 0 01-.688 1.657c-.43.43-1.049.687-1.656.687a2.395 2.395 0 01-1.658-.69 2.384 2.384 0 01-.685-1.654c0-.618.25-1.22.689-1.659a2.386 2.386 0 011.654-.685c.609 0 1.227.256 1.657.688.43.43.687 1.049.687 1.656zm-49.047 37.936a2.344 2.344 0 002.343-2.344V85.427a2.344 2.344 0 00-4.687 0v14.882a2.343 2.343 0 002.344 2.344z" fill="#000"/></g><defs><clipPath id="clip0"><path fill="#fff" d="M0 0h120v120H0z"/></clipPath></defs></svg>
